raw-svg/step-forward.svg

<svg viewBox="0 0 24 24" xmlns="http://www.w3.org/2000/svg"><path d="m8 19.75a.75.75 0 0 1 -.29-.06.74.74 0 0 1 -.46-.69v-14a.74.74 0 0 1 .46-.69.75.75 0 0 1 .82.16l7 7a.75.75 0 0 1 0 1.06l-7 7a.77.77 0 0 1 -.53.22zm.75-12.94v10.38l5.19-5.19z"/><path d="m16 19.75a.76.76 0 0 1 -.75-.75v-14a.75.75 0 0 1 1.5 0v14a.76.76 0 0 1 -.75.75z"/></svg>

<svg xmlns="http://www.w3.org/2000/svg" viewBox="0 0 24 24"><g id="step-forward"><g id="_Path_" data-name="&lt;Path&gt;"><path d="M8,19.75a.75.75,0,0,1-.29-.06A.74.74,0,0,1,7.25,19V5a.74.74,0,0,1,.46-.69.75.75,0,0,1,.82.16l7,7a.75.75,0,0,1,0,1.06l-7,7A.77.77,0,0,1,8,19.75ZM8.75,6.81V17.19L13.94,12Z"/></g><path d="M16,19.75a.76.76,0,0,1-.75-.75V5a.75.75,0,0,1,1.5,0V19A.76.76,0,0,1,16,19.75Z"/></g></svg>
